source/assets/images/icons/glasses.svg

<svg fill="none" height="80" viewBox="0 0 80 80" width="80" xmlns="http://www.w3.org/2000/svg"><path d="m73.841 12.4721c-1.9208-.1834-3.8369.4518-5.2561 1.7422-1.4203 1.2912-2.235 3.1322-2.235 5.051 0 .7157.5802 1.2959 1.2959 1.2959s1.2959-.5802 1.2959-1.2959c0-1.1901.5054-2.3322 1.3866-3.1333.8931-.8121 2.0534-1.196 3.2667-1.0797 2.1382.2037 3.8132 2.1588 3.8132 4.4506v28.7905c0 .3228-.1059.6205-.283.8631-.946-8.2063-7.9352-14.5996-16.3909-14.5996-7.4588 0-13.7765 4.975-15.812 11.7807-1.243-1.2955-2.9893-2.1047-4.9223-2.1047s-3.6795.809-4.9223 2.1047c-2.0355-6.8057-8.3532-11.7807-15.812-11.7807-8.4557 0-15.44505 6.3933-16.39088 14.5996-.17711-.2426-.28303-.5405-.28303-.8631v-28.7905c0-2.2918 1.67482-4.2469 3.81305-4.4508 1.21399-.1161 2.37356.2678 3.26669 1.0798.88137.8012 1.38677 1.9433 1.38677 3.1334 0 .7157.5802 1.2959 1.2959 1.2959s1.2959-.5802 1.2959-1.2959c0-1.9186-.8145-3.7596-2.235-5.051-1.41925-1.2904-3.33493-1.925-5.25614-1.7422-3.45365.3293-6.15896 3.4177-6.15896 7.0308v28.7905c0 1.7997 1.17719 3.3287 2.8019 3.8599.5657 8.5899 7.7332 15.4058 16.4638 15.4058 9.0987 0 16.501-7.4024 16.501-16.5011 0-2.3342 1.8991-4.2333 4.2333-4.2333s4.2333 1.8991 4.2333 4.2333c0 9.0987 7.4023 16.5011 16.501 16.5011 8.7306 0 15.8981-6.8159 16.4638-15.4058 1.6245-.5312 2.8019-2.0602 2.8019-3.8599v-28.7905c0-3.6131-2.7053-6.7015-6.159-7.0308zm-54.5753 52.4952c-7.6697 0-13.90933-6.2397-13.90933-13.9093 0-7.6697 6.23963-13.9093 13.90933-13.9093 7.6696 0 13.9092 6.2396 13.9092 13.9093 0 7.6696-6.2396 13.9093-13.9092 13.9093zm41.4686 0c-7.6696 0-13.9092-6.2397-13.9092-13.9093 0-7.6697 6.2396-13.9093 13.9092-13.9093 7.6697 0 13.9093 6.2396 13.9093 13.9093 0 7.6696-6.2396 13.9093-13.9093 13.9093z" fill="#000"/></svg>

<svg width="80" height="80" viewBox="0 0 80 80" fill="none" xmlns="http://www.w3.org/2000/svg">
<path d="M73.841 12.4721C71.9202 12.2887 70.0041 12.9239 68.5849 14.2143C67.1646 15.5055 66.3499 17.3465 66.3499 19.2653C66.3499 19.981 66.9301 20.5612 67.6458 20.5612C68.3615 20.5612 68.9417 19.981 68.9417 19.2653C68.9417 18.0752 69.4471 16.9331 70.3283 16.132C71.2214 15.3199 72.3817 14.936 73.595 15.0523C75.7332 15.256 77.4082 17.2111 77.4082 19.5029V48.2934C77.4082 48.6162 77.3023 48.9139 77.1252 49.1565C76.1792 40.9502 69.19 34.5569 60.7343 34.5569C53.2755 34.5569 46.9578 39.5319 44.9223 46.3376C43.6793 45.0421 41.933 44.2329 40 44.2329C38.067 44.2329 36.3205 45.0419 35.0777 46.3376C33.0422 39.5319 26.7245 34.5569 19.2657 34.5569C10.81 34.5569 3.82065 40.9502 2.87482 49.1565C2.69771 48.9139 2.59179 48.616 2.59179 48.2934V19.5029C2.59179 17.2111 4.26661 15.256 6.40484 15.0521C7.61883 14.936 8.7784 15.3199 9.67153 16.1319C10.5529 16.9331 11.0583 18.0752 11.0583 19.2653C11.0583 19.981 11.6385 20.5612 12.3542 20.5612C13.0699 20.5612 13.6501 19.981 13.6501 19.2653C13.6501 17.3467 12.8356 15.5057 11.4151 14.2143C9.99585 12.9239 8.08017 12.2893 6.15896 12.4721C2.70531 12.8014 0 15.8898 0 19.5029V48.2934C0 50.0931 1.17719 51.6221 2.8019 52.1533C3.3676 60.7432 10.5351 67.5591 19.2657 67.5591C28.3644 67.5591 35.7667 60.1567 35.7667 51.058C35.7667 48.7238 37.6658 46.8247 40 46.8247C42.3342 46.8247 44.2333 48.7238 44.2333 51.058C44.2333 60.1567 51.6356 67.5591 60.7343 67.5591C69.4649 67.5591 76.6324 60.7432 77.1981 52.1533C78.8226 51.6221 80 50.0931 80 48.2934V19.5029C80 15.8898 77.2947 12.8014 73.841 12.4721ZM19.2657 64.9673C11.596 64.9673 5.35637 58.7276 5.35637 51.058C5.35637 43.3883 11.596 37.1487 19.2657 37.1487C26.9353 37.1487 33.1749 43.3883 33.1749 51.058C33.1749 58.7276 26.9353 64.9673 19.2657 64.9673ZM60.7343 64.9673C53.0647 64.9673 46.8251 58.7276 46.8251 51.058C46.8251 43.3883 53.0647 37.1487 60.7343 37.1487C68.404 37.1487 74.6436 43.3883 74.6436 51.058C74.6436 58.7276 68.404 64.9673 60.7343 64.9673Z" fill="black"/>
</svg>
